station_admin/static/station_admin/client/img/svg/bicycle.svg

<svg width="16" height="16" xmlns="http://www.w3.org/2000/svg" fill="currentColor" class="bi bi-bicycle">
 <g>
  <title>Layer 1</title>
  <ellipse ry="7.93734" rx="7.93734" id="svg_2" cy="7.9375" cx="7.9375" fill="#d8d8d8"/>
  <path d="m4,4.5a0.5,0.5 0 0 1 0.5,-0.5l1.5,0a0.5,0.5 0 0 1 0,1l0,0.5l4.14,0l0.386,-1.158a0.5,0.5 0 0 1 0.474,-0.342l1,0a0.5,0.5 0 0 1 0,1l-0.64,0l-0.311,0.935l0.807,1.29a3,3 0 1 1 -0.848,0.53l-0.508,-0.812l-2.076,3.322a0.5,0.5 0 0 1 -0.424,0.235l-2.041,0a3,3 0 1 1 -1.815,-3.274l0.856,-1.37l0,-0.856l-0.5,0a0.5,0.5 0 0 1 -0.5,-0.5zm1.5,2.443l-0.508,0.814c0.5,0.444 0.85,1.054 0.967,1.743l1.139,0l-1.598,-2.557zm2.5,2.114l1.598,-2.557l-3.196,0l1.598,2.557zm-3.063,0.443a1.997,1.997 0 0 0 -0.487,-0.877l-0.548,0.877l1.035,0zm-1.334,-1.408a2,2 0 1 0 1.334,2.408l-1.937,0a0.5,0.5 0 0 1 -0.424,-0.765l1.027,-1.643zm7.947,0.53a2,2 0 1 0 0.848,-0.53l1.026,1.643a0.5,0.5 0 1 1 -0.848,0.53l-1.026,-1.642l0,-0.001z" id="svg_1" fill="#0055ff"/>
 </g>

</svg>

<svg xmlns="http://www.w3.org/2000/svg" width="16" height="16" fill="currentColor" class="bi bi-bicycle" viewBox="0 0 16 16">
  <path d="M4 4.5a.5.5 0 0 1 .5-.5H6a.5.5 0 0 1 0 1v.5h4.14l.386-1.158A.5.5 0 0 1 11 4h1a.5.5 0 0 1 0 1h-.64l-.311.935.807 1.29a3 3 0 1 1-.848.53l-.508-.812-2.076 3.322A.5.5 0 0 1 8 10.5H5.959a3 3 0 1 1-1.815-3.274L5 5.856V5h-.5a.5.5 0 0 1-.5-.5zm1.5 2.443-.508.814c.5.444.85 1.054.967 1.743h1.139L5.5 6.943zM8 9.057 9.598 6.5H6.402L8 9.057zM4.937 9.5a1.997 1.997 0 0 0-.487-.877l-.548.877h1.035zM3.603 8.092A2 2 0 1 0 4.937 10.5H3a.5.5 0 0 1-.424-.765l1.027-1.643zm7.947.53a2 2 0 1 0 .848-.53l1.026 1.643a.5.5 0 1 1-.848.53L11.55 8.623z"/>
</svg>
